icon-themes/sifr_svg/cmd/lc_defaultnumbering.svg

<svg viewBox="0 0 24 24" xmlns="http://www.w3.org/2000/svg"><path d="m5 2c0 1.4-.7 2-2 2v2h2v5h2v-9zm5 0v2h12v-2zm0 3v2h12v-2zm0 3v2h6v-2zm-5 5a3 3 0 0 0 -3 3h2a1 1 0 0 1 1-1 1 1 0 0 1 1 1l-4 4v2h6v-2h-3.54l3.14-3.1c.4-.4.4-.67.4-.9a3 3 0 0 0 -3-3zm5 0v2h12v-2zm0 3v2h12v-2zm0 3v2h6v-2z" fill="#555753"/></svg>

<svg xmlns="http://www.w3.org/2000/svg" viewBox="0 0 24 24">
  <path
     style="fill:#555753"
     d="M 5 2 C 5 3.4 4.3 4 3 4 L 3 6 L 5 6 L 5 11 L 7 11 L 7 2 L 5 2 z M 10 2 L 10 4 L 22 4 L 22 2 L 10 2 z M 10 5 L 10 7 L 22 7 L 22 5 L 10 5 z M 10 8 L 10 10 L 16 10 L 16 8 L 10 8 z M 5 13 A 3 3 0 0 0 2 16 L 4 16 A 1 1 0 0 1 5 15 A 1 1 0 0 1 6 16 L 2 20 L 2 22 L 8 22 L 8 20 L 4.46 20 L 7.6 16.9 C 8 16.5 8 16.23 8 16 A 3 3 0 0 0 5 13 z M 10 13 L 10 15 L 22 15 L 22 13 L 10 13 z M 10 16 L 10 18 L 22 18 L 22 16 L 10 16 z M 10 19 L 10 21 L 16 21 L 16 19 L 10 19 z "
     />
</svg>
